X:1
T:Westering Home
M:6/8
L:1/8
K:C
 g3/2 e/2 d c3/2 d/2 e| d3/2 e/2 d G3| G3/2 A/2 B| c3/2 d/2 e| f3/2 e/2 f d3|\
 g3/2 e/2 d c3/2 d/2 e| d3/2 e/2 d G2 g| g3/2 e/2 c eed| c3 c| BA|\
 G3/2 A/2 G GEG| ccd e3| f3/2 e/2 d e3/2 d/2 c| AAA G3| G3/2 G/2 G|\
 GEG| c3/2 c/2 d e3| gec e2 d| c3 c3|

